X: 032
Q: "slow"
M: C
L: 1/8
K: D
V: 1
|:{B}\
~d3e defd | Jg2f>g {f}e2Tf>e | d2{B}A2 {G}TF2A2 | B(d/c/) d>A TF2JA2 |
V: 2 clef=bass middle=d
|:\
de"6"fe d2zd | g"6"f"6"ed a2z2 | de"6"fe d2z"6"f | g4 d4 | "5"babg \
"6"fefd | "6"g2G2 A4 | de"6"fd g4 | d4 D4 || de"6"f"6"g "6"f3f | "6"e2d2 a4 | b2"6"c'2 \
d'd"6"fd | g4 d4 | "5"babg "6"fefd | "6"g2G2 A4 | de"6"fd G4 | d4 D4 :|

